X: 29
T: Pollonesse #29
M: 3/4
L: 1/16
K: C
Q:120
c2e2 d2e2 c2e2|d2ef e8|c2e2 d2e2 c2e2|B2c2 d2BcA4|c2e2 d2e2 c2e2|d2ef e4 g2b2|a2g2e4g2f2|[1d4e8:|[2 d4e6|]
e2|:d2c2A4c2e2|d2Bd c2A2 c2e2|d2Bd c2A2 c2B2|G4A8:|

